svg/building/ferris_wheel_fill.svg

<?xml version="1.0" encoding="UTF-8"?>
<svg width="24px" height="24px" viewBox="0 0 24 24" version="1.1" xmlns="http://www.w3.org/2000/svg" xmlns:xlink="http://www.w3.org/1999/xlink">
    <title>ferris_wheel_fill</title>
    <g id="Icon" stroke="none" stroke-width="1" fill="none" fill-rule="evenodd">
        <g id="Building" transform="translate(-576.000000, -240.000000)">
            <g id="ferris_wheel_fill" transform="translate(576.000000, 240.000000)">
                <path d="M24,0 L24,24 L0,24 L0,0 L24,0 Z M12.5935,23.2578 L12.5819,23.2595 L12.5109,23.295 L12.4919,23.2987 L12.4767,23.295 L12.4057,23.2595 C12.3958,23.2564 12.387,23.259 12.3821,23.2649 L12.378,23.2758 L12.3609,23.7031 L12.3659,23.7235 L12.3769,23.7357 L12.4805,23.8097 L12.4953,23.8136 L12.5071,23.8097 L12.6107,23.7357 L12.6233,23.7197 L12.6267,23.7031 L12.6096,23.2758 C12.6076,23.2657 12.601,23.2593 12.5935,23.2578 Z M12.8584,23.1453 L12.8445,23.1473 L12.6598,23.2397 L12.6499,23.2499 L12.6472,23.2611 L12.6651,23.6906 L12.6699,23.7034 L12.6784,23.7105 L12.8793,23.8032 C12.8914,23.8069 12.9022,23.803 12.9078,23.7952 L12.9118,23.7812 L12.8777,23.1665 C12.8753,23.1546 12.8674,23.147 12.8584,23.1453 Z M12.143,23.1473 C12.1332,23.1424 12.1222,23.1453 12.1156,23.1526 L12.1099,23.1665 L12.0758,23.7812 C12.0751,23.7927 12.0828,23.8019 12.0926,23.8046 L12.1083,23.8032 L12.3092,23.7105 L12.3186,23.7024 L12.3225,23.6906 L12.3404,23.2611 L12.3372,23.2485 L12.3278,23.2397 L12.143,23.1473 Z" id="MingCute" fill-rule="nonzero"></path>
                <path d="M12,2 C10.3431,2 9,3.34315 9,5 C9,5.22023 9.02373,5.43492 9.06878,5.64165 C8.6784,5.82191 8.30744,6.03705 7.9599,6.2831 C7.80317,6.14041 7.62883,6.01225 7.43776,5.90194 C6.00288,5.07351 4.16811,5.56514 3.33968,7 C2.51125,8.43489 3.00288,10.2697 4.43776,11.0981 C4.62883,11.2084 4.82699,11.2953 5.02891,11.3597 C5.00978,11.5706 5,11.7843 5,12.0002 C5,12.2161 5.00977,12.4297 5.0289,12.6406 C4.82698,12.705 4.62883,12.7919 4.43777,12.9022 C3.00289,13.7306 2.51126,15.5654 3.33969,17.0002 C4.16812,18.4351 6.00289,18.9268 7.43777,18.0983 C7.62879,17.988 7.80309,17.8599 7.95979,17.7173 C8.2448,17.9191 8.54557,18.1001 8.85988,18.2581 L8.05132,20.6838 C7.87667,21.2077 8.15983,21.774 8.68377,21.9487 C9.20772,22.1233 9.77404,21.8402 9.94868,21.3162 L10.7573,18.8903 C11.1606,18.9625 11.5759,19.0002 12,19.0002 C12.4241,19.0002 12.8394,18.9625 13.2427,18.8903 L14.0513,21.3162 C14.226,21.8402 14.7923,22.1233 15.3162,21.9487 C15.8402,21.774 16.1233,21.2077 15.9487,20.6838 L15.1401,18.2581 C15.4544,18.1001 15.7552,17.9191 16.0402,17.7173 C16.1969,17.8598 16.3711,17.9879 16.562,18.0981 C17.9969,18.9265 19.8317,18.4349 20.6601,17 C21.4885,15.5651 20.9969,13.7304 19.562,12.9019 C19.371,12.7917 19.173,12.7048 18.9711,12.6404 C18.9902,12.4296 19,12.216 19,12.0002 C19,11.7843 18.9902,11.5708 18.9711,11.3599 C19.173,11.2955 19.371,11.2086 19.562,11.0983 C20.9969,10.2699 21.4885,8.43513 20.6601,7.00025 C19.8317,5.56537 17.9969,5.07374 16.562,5.90217 C16.3711,6.01243 16.1968,6.14052 16.0401,6.28312 C15.6926,6.03707 15.3216,5.82191 14.9312,5.64165 C14.9763,5.43492 15,5.22023 15,5 C15,3.34315 13.6569,2 12,2 Z M14.4982,16.3324 C14.7063,16.2121 14.905,16.0772 15.0928,15.9292 C14.9993,15.2856 15.1135,14.607 15.4639,14 C15.8145,13.3929 16.3451,12.9546 16.9495,12.7138 C16.9828,12.4807 17,12.2425 17,12.0002 C17,11.7579 16.9828,11.5196 16.9494,11.2864 C16.3451,11.0456 15.8145,10.6073 15.464,10.0002 C15.1135,9.39332 14.9993,8.71484 15.0927,8.07123 C14.72,7.77741 14.3044,7.5355 13.8569,7.3564 C13.3461,7.75946 12.7012,8 12,8 C11.2988,8 10.6539,7.75946 10.1431,7.3564 C9.69552,7.53553 9.27989,7.77748 8.9071,8.07135 C9.00044,8.71485 8.88618,9.39319 8.53583,10 C8.18537,10.607 7.65481,11.0452 7.05061,11.2861 C7.01726,11.5193 7,11.7578 7,12.0002 C7,12.2426 7.01725,12.481 7.05058,12.7141 C7.6548,12.955 8.18537,13.3932 8.53584,14.0002 C8.88622,14.6071 9.00047,15.2855 8.90708,15.9291 C9.09491,16.0772 9.29361,16.212 9.50179,16.3324 L11.0513,11.6838 C11.1874,11.2754 11.5696,11 12,11 C12.4304,11 12.8126,11.2754 12.9487,11.6838 L14.4982,16.3324 Z" id="形状" fill="#09244B"></path>
            </g>
        </g>
    </g>
</svg>

<svg xmlns="http://www.w3.org/2000/svg" width="24" height="24"><g fill="none" fill-rule="evenodd"><path d="M24 0v24H0V0h24ZM12.594 23.258l-.012.002-.071.035-.02.004-.014-.004-.071-.036c-.01-.003-.019 0-.024.006l-.004.01-.017.428.005.02.01.013.104.074.015.004.012-.004.104-.074.012-.016.004-.017-.017-.427c-.002-.01-.009-.017-.016-.018Zm.264-.113-.014.002-.184.093-.01.01-.003.011.018.43.005.012.008.008.201.092c.012.004.023 0 .029-.008l.004-.014-.034-.614c-.003-.012-.01-.02-.02-.022Zm-.715.002a.023.023 0 0 0-.027.006l-.006.014-.034.614c0 .012.007.02.017.024l.015-.002.201-.093.01-.008.003-.011.018-.43-.003-.012-.01-.01-.184-.092Z"/><path fill="#09244B" d="M12 2a3 3 0 0 0-2.931 3.642c-.39.18-.762.395-1.11.641a3 3 0 1 0-2.931 5.077 7.09 7.09 0 0 0 0 1.28 3 3 0 1 0 2.93 5.077c.287.202.588.383.902.541l-.809 2.426a1 1 0 0 0 1.898.632l.808-2.426a7.048 7.048 0 0 0 2.486 0l.808 2.426a1 1 0 0 0 1.898-.632l-.809-2.426c.314-.158.615-.339.9-.54a3 3 0 1 0 2.93-5.077 7.094 7.094 0 0 0 .001-1.281 3 3 0 1 0-2.931-5.077 6.99 6.99 0 0 0-1.109-.641A3 3 0 0 0 12 2Zm2.498 14.332a5.02 5.02 0 0 0 .595-.403 2.987 2.987 0 0 1 .37-1.929 2.987 2.987 0 0 1 1.487-1.286 5.043 5.043 0 0 0 0-1.428A2.987 2.987 0 0 1 15.463 10a2.987 2.987 0 0 1-.371-1.929 4.993 4.993 0 0 0-1.236-.715A2.987 2.987 0 0 1 12 8c-.701 0-1.346-.24-1.857-.644-.447.18-.863.421-1.236.715A2.987 2.987 0 0 1 8.536 10a2.987 2.987 0 0 1-1.485 1.286 5.043 5.043 0 0 0 0 1.428c.604.241 1.134.68 1.485 1.286.35.607.464 1.286.371 1.93.188.147.387.282.595.402l1.55-4.648a1 1 0 0 1 1.897 0l1.55 4.648Z"/></g></svg>
